packages/katcn/src/icons/svg/image-solid.svg

<svg width="24" height="25" viewBox="0 0 24 25" fill="none" xmlns="http://www.w3.org/2000/svg">
<path d="M22.6873 19.4549L16.0108 8.23038C15.7119 7.61813 15.114 7.31201 14.4165 7.31201C13.7189 7.31201 13.2207 7.61813 12.8221 8.23038L9.03546 14.5569L8.23827 13.1283C7.93933 12.5161 7.34144 12.21 6.6439 12.21C6.04601 12.21 5.44812 12.5161 5.04953 13.1283L1.2629 19.4549C0.963953 20.0671 0.864305 20.7814 1.2629 21.3936C1.66149 21.9038 2.25938 22.312 2.95692 22.312H21.1925C21.8901 22.312 22.488 21.9038 22.7869 21.3936C23.0859 20.7814 23.0859 20.0671 22.6873 19.4549Z" fill="black"/>
<path d="M6 9.31201C8.20914 9.31201 10 7.52115 10 5.31201C10 3.10287 8.20914 1.31201 6 1.31201C3.79086 1.31201 2 3.10287 2 5.31201C2 7.52115 3.79086 9.31201 6 9.31201Z" fill="black"/>
</svg>

<svg xmlns="http://www.w3.org/2000/svg" fill="none" viewBox="0 0 24 25"><path fill="#000" d="M22.687 19.455 16.011 8.23c-.3-.612-.897-.918-1.594-.918s-1.196.306-1.595.918l-3.787 6.327-.797-1.429c-.299-.612-.897-.918-1.594-.918-.598 0-1.196.306-1.594.918l-3.787 6.327c-.299.612-.399 1.326 0 1.939.398.51.996.918 1.694.918h18.236c.697 0 1.295-.408 1.594-.918.299-.613.299-1.327-.1-1.94M6 9.312a4 4 0 1 0 0-8 4 4 0 0 0 0 8"/></svg>
